flaticon/gastronomy/pretzel.svg

<svg xmlns="http://www.w3.org/2000/svg" width="32" height="32" viewBox="0 0 24 24">
    <path d="M2.035156 10.410156L2.035156 9.835938C2.035156 9.609375 1.851562 9.429688 1.628906 9.429688 1.402344 9.429688 1.222656 9.609375 1.222656 9.835938L1.222656 10.410156C1.222656 10.636719 1.402344 10.816406 1.628906 10.816406 1.851562 10.816406 2.035156 10.636719 2.035156 10.410156zM2.460938 12.660156C2.28125 12.523438 2.027344 12.558594 1.890625 12.734375L1.539062 13.191406C1.398438 13.367188 1.433594 13.625 1.609375 13.761719 1.683594 13.820312 1.773438 13.847656 1.859375 13.847656 1.980469 13.847656 2.101562 13.792969 2.179688 13.6875L2.535156 13.234375C2.671875 13.054688 2.636719 12.800781 2.460938 12.660156zM2.933594 16.867188L2.582031 17.320312C2.445312 17.5 2.476562 17.753906 2.65625 17.894531 2.730469 17.949219 2.816406 17.976562 2.90625 17.976562 3.027344 17.976562 3.144531 17.921875 3.226562 17.820312L3.578125 17.363281C3.714844 17.1875 3.683594 16.929688 3.507812 16.792969 3.328125 16.65625 3.074219 16.6875 2.933594 16.867188zM7.828125 17.777344L7.253906 17.726562C7.03125 17.707031 6.832031 17.871094 6.8125 18.09375 6.792969 18.320312 6.957031 18.515625 7.179688 18.535156L7.753906 18.589844C7.765625 18.589844 7.78125 18.589844 7.792969 18.589844 8 18.589844 8.175781 18.429688 8.195312 18.21875 8.21875 17.996094 8.050781 17.796875 7.828125 17.777344zM17.6875 17.511719C17.574219 17.320312 17.324219 17.253906 17.132812 17.371094 16.9375 17.484375 16.875 17.734375 16.988281 17.925781L17.082031 18.089844C17.160156 18.214844 17.296875 18.289062 17.433594 18.289062 17.503906 18.289062 17.574219 18.269531 17.640625 18.230469 17.835938 18.117188 17.898438 17.867188 17.785156 17.671875zM12.5625 17.769531C12.449219 17.578125 12.199219 17.511719 12.007812 17.628906 11.8125 17.742188 11.75 17.992188 11.863281 18.183594L11.957031 18.347656C12.035156 18.472656 12.171875 18.546875 12.308594 18.546875 12.378906 18.546875 12.453125 18.527344 12.515625 18.488281 12.710938 18.375 12.773438 18.125 12.660156 17.929688zM12.15625 8.40625C12.042969 8.210938 11.792969 8.148438 11.597656 8.261719 11.40625 8.378906 11.34375 8.628906 11.457031 8.820312L11.550781 8.980469C11.628906 9.109375 11.761719 9.179688 11.902344 9.179688 11.972656 9.179688 12.042969 9.164062 12.109375 9.125 12.300781 9.011719 12.367188 8.761719 12.253906 8.566406zM9.015625 6.378906C9.089844 6.507812 9.226562 6.578125 9.363281 6.578125 9.433594 6.578125 9.507812 6.558594 9.570312 6.519531 9.765625 6.40625 9.828125 6.15625 9.714844 5.964844L9.621094 5.800781C9.503906 5.609375 9.253906 5.546875 9.0625 5.660156 8.867188 5.773438 8.804688 6.023438 8.917969 6.21875zM4.585938 6.929688C4.648438 6.96875 4.71875 6.984375 4.789062 6.984375 4.929688 6.984375 5.066406 6.914062 5.140625 6.785156L5.238281 6.625C5.351562 6.429688 5.285156 6.179688 5.089844 6.066406 4.894531 5.953125 4.648438 6.019531 4.535156 6.210938L4.4375 6.375C4.324219 6.566406 4.390625 6.816406 4.585938 6.929688zM8.085938 12.070312C7.972656 11.878906 7.722656 11.8125 7.527344 11.925781 7.335938 12.042969 7.269531 12.292969 7.386719 12.484375L7.480469 12.644531C7.554688 12.773438 7.691406 12.847656 7.832031 12.847656 7.902344 12.847656 7.972656 12.828125 8.039062 12.789062 8.230469 12.675781 8.296875 12.425781 8.179688 12.230469zM5.378906 14.566406C5.160156 14.503906 4.9375 14.632812 4.878906 14.851562L4.828125 15.03125C4.769531 15.246094 4.894531 15.46875 5.113281 15.53125 5.148438 15.539062 5.183594 15.542969 5.21875 15.542969 5.398438 15.542969 5.5625 15.425781 5.613281 15.246094L5.664062 15.066406C5.722656 14.847656 5.59375 14.625 5.378906 14.566406zM9.878906 10.078125C9.660156 10.015625 9.4375 10.144531 9.378906 10.363281L9.328125 10.542969C9.269531 10.757812 9.398438 10.980469 9.613281 11.042969 9.648438 11.050781 9.6875 11.054688 9.722656 11.054688 9.902344 11.054688 10.066406 10.9375 10.113281 10.757812L10.164062 10.578125C10.222656 10.359375 10.09375 10.136719 9.878906 10.078125zM14.8125 10.257812C14.597656 10.199219 14.375 10.324219 14.3125 10.542969L14.265625 10.722656C14.203125 10.9375 14.332031 11.164062 14.550781 11.222656 14.585938 11.230469 14.621094 11.238281 14.65625 11.238281 14.835938 11.238281 15 11.117188 15.050781 10.9375L15.097656 10.757812C15.160156 10.539062 15.03125 10.316406 14.8125 10.257812zM17.34375 13.015625L17.1875 13.113281C16.996094 13.234375 16.9375 13.488281 17.058594 13.675781 17.136719 13.800781 17.269531 13.867188 17.402344 13.867188 17.476562 13.867188 17.554688 13.847656 17.621094 13.804688L17.777344 13.703125C17.96875 13.582031 18.027344 13.332031 17.90625 13.140625 17.785156 12.953125 17.535156 12.894531 17.34375 13.015625zM20.433594 15.855469L20.25 15.851562C20.015625 15.835938 19.835938 16.023438 19.832031 16.246094 19.828125 16.472656 20.003906 16.660156 20.230469 16.664062L20.414062 16.667969C20.417969 16.667969 20.421875 16.667969 20.425781 16.667969 20.644531 16.667969 20.828125 16.492188 20.832031 16.269531 20.835938 16.046875 20.660156 15.859375 20.433594 15.855469zM22.351562 12.371094C22.21875 12.191406 21.964844 12.152344 21.785156 12.28125 21.601562 12.414062 21.5625 12.671875 21.695312 12.851562L21.804688 13.003906C21.882812 13.113281 22.007812 13.167969 22.132812 13.167969 22.21875 13.167969 22.300781 13.144531 22.375 13.089844 22.554688 12.960938 22.59375 12.703125 22.460938 12.523438zM21.65625 9.921875L21.765625 10.074219C21.84375 10.183594 21.96875 10.242188 22.09375 10.242188 22.179688 10.242188 22.261719 10.214844 22.335938 10.164062 22.515625 10.03125 22.554688 9.777344 22.425781 9.597656L22.3125 9.445312C22.183594 9.261719 21.925781 9.222656 21.746094 9.355469 21.5625 9.488281 21.523438 9.742188 21.65625 9.921875zM19.738281 6.175781L19.550781 6.171875C19.328125 6.164062 19.140625 6.34375 19.136719 6.570312 19.128906 6.792969 19.308594 6.980469 19.53125 6.984375L19.71875 6.988281C19.722656 6.988281 19.726562 6.988281 19.730469 6.988281 19.949219 6.988281 20.128906 6.8125 20.136719 6.59375 20.140625 6.367188 19.964844 6.179688 19.738281 6.175781zM15.5625 5.367188C15.34375 5.316406 15.125 5.453125 15.074219 5.671875L15.03125 5.855469C14.980469 6.074219 15.117188 6.292969 15.335938 6.34375 15.367188 6.351562 15.398438 6.351562 15.429688 6.351562 15.613281 6.351562 15.78125 6.226562 15.828125 6.039062L15.867188 5.855469C15.917969 5.636719 15.78125 5.417969 15.5625 5.367188zM15.5625 5.367188"/>
    <path d="M 22.691406 7.523438 C 21.566406 5.898438 19.875 4.785156 18.164062 4.546875 C 18.070312 4.535156 17.96875 4.515625 17.859375 4.5 C 16.652344 4.3125 14.410156 3.960938 12.742188 5.476562 L 12.175781 6.042969 L 11.875 5.816406 C 10.84375 5.046875 9.671875 4.5625 8.488281 4.414062 C 7.59375 4.300781 6.804688 4.386719 5.898438 4.550781 C 2.425781 5.167969 0 8.011719 0 11.464844 C 0 13.285156 0.617188 15.054688 1.746094 16.488281 L 1.207031 17.03125 C 0.761719 17.484375 0.652344 18.144531 0.882812 18.707031 C 0.960938 18.898438 1.074219 19.074219 1.230469 19.226562 C 1.519531 19.515625 1.902344 19.675781 2.308594 19.675781 C 2.3125 19.675781 2.316406 19.675781 2.316406 19.675781 C 2.582031 19.671875 2.835938 19.597656 3.0625 19.46875 C 3.183594 19.402344 3.296875 19.320312 3.398438 19.21875 L 3.53125 19.082031 L 4.097656 18.519531 C 5.332031 19.230469 6.726562 19.605469 8.140625 19.605469 L 15.515625 19.605469 C 17.144531 19.605469 18.71875 19.148438 20.101562 18.289062 L 21.027344 19.21875 L 21.03125 19.222656 C 21.332031 19.515625 21.71875 19.664062 22.113281 19.664062 C 22.511719 19.664062 22.917969 19.507812 23.226562 19.195312 C 23.519531 18.90625 23.675781 18.519531 23.675781 18.109375 C 23.675781 17.699219 23.511719 17.316406 23.21875 17.027344 L 22.394531 16.203125 C 23.09375 15.28125 23.578125 14.25 23.828125 13.136719 C 24.265625 11.207031 23.859375 9.214844 22.691406 7.523438 Z M 0.8125 11.464844 C 0.8125 8.414062 2.964844 5.898438 6.042969 5.351562 C 7.054688 5.167969 7.691406 5.132812 8.386719 5.222656 C 9.433594 5.351562 10.46875 5.785156 11.386719 6.46875 L 11.59375 6.625 L 10.558594 7.660156 C 9.019531 6.449219 6.980469 6.234375 5.199219 7.113281 C 3.425781 7.984375 2.371094 9.738281 2.449219 11.6875 C 2.453125 11.832031 2.464844 11.980469 2.480469 12.125 C 2.585938 13.066406 2.9375 13.960938 3.496094 14.734375 L 2.332031 15.902344 C 1.355469 14.625 0.8125 13.066406 0.8125 11.464844 Z M 4.074219 14.140625 C 3.644531 13.507812 3.375 12.789062 3.289062 12.03125 C 3.273438 11.90625 3.265625 11.78125 3.261719 11.65625 C 3.199219 10.03125 4.078125 8.570312 5.558594 7.84375 C 6.171875 7.542969 6.820312 7.394531 7.464844 7.394531 C 8.355469 7.394531 9.234375 7.679688 9.976562 8.238281 Z M 15.515625 18.792969 L 8.144531 18.792969 C 6.941406 18.792969 5.761719 18.492188 4.699219 17.921875 L 5.925781 16.695312 C 5.96875 16.71875 6.007812 16.738281 6.050781 16.761719 C 6.683594 17.121094 7.472656 17.570312 9.363281 17.570312 L 14.65625 17.570312 C 16.566406 17.570312 17.609375 16.992188 18.367188 16.558594 L 19.511719 17.703125 C 18.300781 18.417969 16.929688 18.792969 15.515625 18.792969 Z M 14.65625 16.757812 L 9.363281 16.757812 C 7.761719 16.757812 7.089844 16.414062 6.527344 16.097656 L 6.800781 15.824219 L 12.214844 10.402344 L 17.769531 15.960938 C 17.0625 16.355469 16.210938 16.757812 14.65625 16.757812 Z M 22.863281 18.113281 C 22.863281 18.304688 22.789062 18.484375 22.628906 18.640625 C 22.351562 18.921875 21.890625 18.921875 21.605469 18.640625 L 20.796875 17.835938 L 18.507812 15.542969 L 12.789062 9.828125 L 13.828125 8.789062 L 21.882812 16.84375 L 22.648438 17.605469 C 22.785156 17.742188 22.859375 17.921875 22.863281 18.113281 Z M 14.410156 8.21875 C 15.394531 7.308594 16.738281 7.074219 18.089844 7.613281 C 19.472656 8.164062 20.835938 9.625 20.761719 11.648438 C 20.753906 11.777344 20.746094 11.902344 20.730469 12.03125 C 20.65625 12.6875 20.433594 13.320312 20.089844 13.898438 Z M 23.035156 12.957031 C 22.816406 13.921875 22.40625 14.816406 21.816406 15.625 L 20.6875 14.496094 C 21.152344 13.773438 21.445312 12.960938 21.539062 12.125 C 21.558594 11.976562 21.570312 11.828125 21.574219 11.679688 C 21.664062 9.257812 20.039062 7.511719 18.390625 6.855469 C 16.746094 6.199219 15.035156 6.507812 13.828125 7.636719 L 11.636719 9.828125 L 11.640625 9.828125 L 5.917969 15.554688 L 2.820312 18.644531 C 2.683594 18.78125 2.503906 18.859375 2.3125 18.859375 C 2.121094 18.855469 1.941406 18.785156 1.785156 18.628906 C 1.503906 18.347656 1.503906 17.886719 1.785156 17.605469 L 2 17.386719 L 12.910156 6.457031 L 13.300781 6.066406 C 14.667969 4.824219 16.660156 5.136719 17.730469 5.304688 C 17.847656 5.324219 17.957031 5.339844 18.050781 5.351562 C 19.542969 5.558594 21.027344 6.542969 22.019531 7.984375 C 23.058594 9.488281 23.421875 11.253906 23.035156 12.957031 Z M 23.035156 12.957031"/>
</svg>

<svg xmlns="http://www.w3.org/2000/svg" width="32" height="32" viewBox="0 0 24 24">
    <path d="M2.035 10.41v-.574a.406.406 0 1 0-.812 0v.574a.406.406 0 1 0 .813 0zm0 0M2.46 12.66a.409.409 0 0 0-.57.074l-.35.457a.405.405 0 1 0 .64.496l.355-.453a.414.414 0 0 0-.074-.574zm0 0M2.934 16.867l-.352.453a.41.41 0 0 0 .074.575.41.41 0 0 0 .57-.074l.352-.458a.409.409 0 0 0-.07-.57.41.41 0 0 0-.574.074zm0 0M7.828 17.777l-.574-.05a.407.407 0 0 0-.074.808l.574.055h.039a.407.407 0 0 0 .035-.813zm0 0M17.688 17.512a.403.403 0 0 0-.555-.14.404.404 0 0 0-.145.554l.094.164c.078.125.215.2.352.2.07 0 .14-.02.207-.06a.407.407 0 0 0 .144-.558zm0 0M12.563 17.77a.403.403 0 0 0-.555-.141.404.404 0 0 0-.145.555l.094.164c.078.125.215.199.352.199.07 0 .144-.02.207-.059a.407.407 0 0 0 .144-.558zm0 0M12.156 8.406a.407.407 0 0 0-.558-.144.411.411 0 0 0-.141.558l.094.16c.078.13.21.2.351.2.07 0 .141-.016.207-.055a.41.41 0 0 0 .145-.559zm0 0M9.016 6.379a.401.401 0 0 0 .554.14.404.404 0 0 0 .145-.554L9.62 5.8a.411.411 0 0 0-.559-.14.407.407 0 0 0-.144.558zm0 0M4.586 6.93c.062.039.133.054.203.054.14 0 .277-.07.352-.199l.097-.16a.409.409 0 0 0-.703-.414l-.098.164a.405.405 0 0 0 .149.555zm0 0M8.086 12.07a.41.41 0 0 0-.559-.144.408.408 0 0 0-.14.558l.093.16a.407.407 0 1 0 .7-.414zm0 0M5.379 14.566a.402.402 0 0 0-.5.286l-.05.18a.408.408 0 0 0 .284.5c.035.007.07.011.106.011.18 0 .343-.117.394-.297l.051-.18a.408.408 0 0 0-.285-.5zm0 0M9.879 10.078a.402.402 0 0 0-.5.285l-.05.18a.412.412 0 0 0 .284.5.52.52 0 0 0 .11.012c.18 0 .343-.117.39-.297l.051-.18a.408.408 0 0 0-.285-.5zm0 0M14.813 10.258a.408.408 0 0 0-.5.285l-.047.18a.404.404 0 0 0 .285.5c.035.007.07.015.105.015.18 0 .344-.12.395-.3l.047-.18a.402.402 0 0 0-.286-.5zm0 0M17.344 13.016l-.157.097a.407.407 0 1 0 .434.692l.156-.102a.407.407 0 1 0-.433-.687zm0 0M20.434 15.855l-.184-.003a.394.394 0 0 0-.418.394.407.407 0 0 0 .398.418l.184.004h.012a.407.407 0 0 0 .008-.813zm0 0M22.352 12.371a.407.407 0 0 0-.656.48l.109.153a.4.4 0 0 0 .328.164.405.405 0 0 0 .328-.645zm0 0M21.656 9.922l.11.152c.078.11.203.168.328.168a.425.425 0 0 0 .242-.078.41.41 0 0 0 .09-.566l-.113-.153a.402.402 0 0 0-.567-.09.403.403 0 0 0-.09.567zm0 0M19.738 6.176l-.187-.004a.403.403 0 0 0-.414.398.403.403 0 0 0 .394.414l.188.004h.011a.407.407 0 0 0 .008-.813zm0 0M15.563 5.367a.407.407 0 0 0-.489.305l-.043.183a.407.407 0 0 0 .305.489.38.38 0 0 0 .094.008.412.412 0 0 0 .398-.313l.04-.184a.407.407 0 0 0-.306-.488zm0 0"/>
    <path d="M22.691 7.523c-1.125-1.625-2.816-2.738-4.527-2.976-.094-.012-.195-.031-.305-.047-1.207-.188-3.449-.54-5.117.977l-.566.566-.301-.227c-1.031-.77-2.203-1.253-3.387-1.402-.894-.113-1.683-.027-2.59.137C2.426 5.168 0 8.01 0 11.465c0 1.82.617 3.59 1.746 5.023l-.539.543a1.547 1.547 0 0 0-.324 1.676c.078.191.191.367.347.52.29.289.672.449 1.079.449h.007c.266-.004.52-.078.747-.207.12-.067.234-.149.335-.25l.133-.137.567-.562a8.105 8.105 0 0 0 4.043 1.085h7.375a8.656 8.656 0 0 0 4.586-1.316l.925.93.004.004c.301.293.688.441 1.082.441.399 0 .805-.156 1.114-.469.293-.289.449-.675.449-1.086 0-.41-.164-.793-.457-1.082l-.824-.824a7.918 7.918 0 0 0 1.433-3.066c.438-1.93.031-3.922-1.137-5.614zM.813 11.465c0-3.05 2.152-5.567 5.23-6.113 1.012-.184 1.648-.22 2.344-.13 1.047.13 2.082.563 3 1.247l.207.156-1.035 1.035c-1.54-1.21-3.579-1.426-5.36-.547-1.773.871-2.828 2.625-2.75 4.574a5.5 5.5 0 0 0 1.047 3.047l-1.164 1.168a7.32 7.32 0 0 1-1.52-4.437zm3.261 2.676a4.685 4.685 0 0 1-.812-2.485c-.063-1.625.816-3.086 2.297-3.812.613-.301 1.261-.45 1.906-.45.89 0 1.77.286 2.512.844zm11.442 4.652H8.145c-1.204 0-2.383-.3-3.446-.871l1.227-1.227.125.067c.633.36 1.422.808 3.312.808h5.293c1.91 0 2.953-.578 3.711-1.011l1.145 1.144a7.835 7.835 0 0 1-3.996 1.09zm-.86-2.035H9.363c-1.601 0-2.273-.344-2.836-.66l.274-.274 5.414-5.422 5.555 5.559c-.707.394-1.56.797-3.114.797zm8.207 1.355a.72.72 0 0 1-.234.528.726.726 0 0 1-1.024 0l-.808-.805-2.29-2.293-5.718-5.715 1.04-1.039 8.054 8.055.765.761c.137.137.211.317.215.508zM14.41 8.22c.985-.91 2.328-1.145 3.68-.606 1.383.551 2.746 2.012 2.672 4.035a4.687 4.687 0 0 1-.672 2.25zm8.625 4.738a7.201 7.201 0 0 1-1.219 2.668l-1.128-1.129a5.532 5.532 0 0 0 .886-2.816c.09-2.422-1.535-4.168-3.183-4.825-1.645-.656-3.356-.347-4.563.782l-2.191 2.191h.004l-5.723 5.727-3.098 3.09a.716.716 0 0 1-.507.214.746.746 0 0 1-.528-.23.726.726 0 0 1 0-1.024L2 17.387l10.91-10.93.39-.39c1.368-1.243 3.36-.93 4.43-.762.118.02.227.035.32.047 1.493.207 2.977 1.191 3.97 2.632 1.039 1.504 1.402 3.27 1.015 4.973zm0 0"/>
</svg>
